teams/dark/117.svg

<svg xmlns="http://www.w3.org/2000/svg" viewBox="0 0 300 300"><title>Houston Astros cap on dark logo</title><path fill="#002d62" d="M150.01 267.24c-64.65 0-117.25-52.6-117.25-117.24S85.36 32.76 150.01 32.76 267.24 85.36 267.24 150s-52.59 117.24-117.23 117.24"/><path fill="#eb6e1f" d="M157.55 191.22v4.33l-7.55-5.5-7.55 5.5v-4.33l-13.8-4.96v-7.84l9.68-13.39h33.04v21.23Zm84.32 54.75h-2.43v6.59h-1.63v-6.59h-2.43v-1.43h6.49Zm9.33 6.58v-6.38h-.05l-2.32 6.38h-1.58l-2.25-6.38h-.03v6.38h-1.65v-8.01h2.83l1.88 5.23h.02l1.95-5.23h2.83v8.01ZM150.01 40.7c60.37 0 109.31 48.92 109.31 109.31s-48.91 109.3-109.31 109.3S40.7 210.39 40.7 150 89.61 40.69 150.01 40.69Zm61.31 190.69c24.66-18.6 40.59-48.12 40.59-81.38 0-10.66-1.64-20.92-4.67-30.58l-53.4 38.79v-36.37h40.79l16.79-5.45h-5.21c-13.7-39.24-50.71-67.5-94.43-68.25l16.48 50.72h-10.7v17.53l13.82 4.94v21.25h-21.36V42.72l-1.78 5.44c-43.73.73-80.72 29.01-94.44 68.25h-5.18l16.78 5.44 40.8 29.66v6.72l-53.42-38.82c-3.04 9.68-4.69 19.96-4.69 30.61 0 33.27 15.95 62.81 40.61 81.38l-1.36 4.21 19.41-26.88h17.57L90.92 233c16.65 11.91 37.06 18.91 59.09 18.91s42.42-7.04 59.09-18.92l-33.42-24.27h28.26l7.37 22.67Z"/><path fill="#f4911e" d="M193.84 121.33v.51h40.78l16.79-5.45h-43.76m-65.2-17.53v17.53l-13.8 4.93v21.23H150V42.71l-1.75 5.44-16.48 50.72m-3.12 79.55 9.67-13.39h-9.67m-25.66 22.38 3.21-1.15zM88.7 231.39l-1.36 4.21 19.43-26.88h-10.7m-3.69-92.32H48.61l16.78 5.44 40.81 29.66v-30.16"/><path fill="#e7e9ea" d="M207.64 116.4V98.87l-4.46 4.47v9.91l-13.82 4.96v71.2l4.48-3.14v-64.92m13.8 69.86-4.46 3.12v9.92h-41.17l-4.47 4.46h50.1m-78.99-43.68h42.72l4.45-4.46h-51.63v28.82l4.47-3.15v-7.83m13.79 17.14v-4.33l-4.45 3.12v9.92H96.81l-4.44 4.46h50.07m-31.78-90.52-13.84-4.96-4.43 3.15 13.82 4.95m55.8-8.1-4.46 3.15 13.82 4.95 4.46-3.15m-33.38-1.79V98.87l-4.45 4.47v9.91l-13.83 4.96v28.83l4.47-4.47v-21.23"/><path fill="#fff" d="M92.38 191.21v17.5l4.43-4.46h41.18v-9.92l4.46-3.12-13.8-4.96-4.47 3.14v-28.82h51.64l-4.46 4.46v21.23l-13.82 4.96v17.5l4.46-4.46h41.18v-9.92l4.46-3.12-13.81-4.96-4.48 3.14v-71.2l13.84-4.96v-9.91l4.46-4.47h-50.1v17.53l4.46-3.15 13.81 4.95-4.46 3.13v21.23h-42.72l-4.47 4.47v-28.83l13.81-4.96v-9.91l4.46-4.47H92.37v17.53l4.43-3.15 13.84 4.95-4.45 3.13v64.93"/></svg>

<svg width="300" height="300" viewBox="0 0 300 300" fill="none" xmlns="http://www.w3.org/2000/svg">
<path d="M150.01 267.24C85.36 267.24 32.76 214.64 32.76 150C32.76 85.36 85.36 32.76 150.01 32.76C214.66 32.76 267.24 85.36 267.24 150C267.24 214.64 214.65 267.24 150.01 267.24Z" fill="#002D62"/>
<path d="M157.55 191.22V195.55L150 190.05L142.45 195.55V191.22L128.65 186.26V178.42L138.33 165.03H171.37V186.26L157.55 191.22ZM150.01 40.7C210.38 40.7 259.32 89.62 259.32 150.01C259.32 210.4 210.41 259.31 150.01 259.31C89.61 259.31 40.7 210.39 40.7 150C40.7 89.61 89.61 40.69 150.01 40.69V40.7ZM211.32 231.39C235.98 212.79 251.91 183.27 251.91 150.01C251.91 139.35 250.27 129.09 247.24 119.43L193.84 158.22V121.85H234.63L251.42 116.4H246.21C232.51 77.16 195.5 48.9 151.78 48.15L168.26 98.87H157.56V116.4L171.38 121.34V142.59H150.02V42.72L148.24 48.16C104.51 48.89 67.52 77.17 53.8 116.41H48.62L65.4 121.85L106.2 151.51V158.23L52.78 119.41C49.74 129.09 48.09 139.37 48.09 150.02C48.09 183.29 64.04 212.83 88.7 231.4L87.34 235.61L106.75 208.73H124.32L90.92 233C107.57 244.91 127.98 251.91 150.01 251.91C172.04 251.91 192.43 244.87 209.1 232.99L175.68 208.72H203.94L211.31 231.39H211.32Z" fill="#EB6E1F"/>
<path d="M193.84 121.33V121.84H234.62L251.41 116.39H207.65M142.45 98.86V116.39L128.65 121.32V142.55H150V42.71L148.25 48.15L131.77 98.87M128.65 178.42L138.32 165.03H128.65M88.7 231.39L87.34 235.6L106.77 208.72H96.07M92.38 116.4H48.61L65.39 121.84L106.2 151.5V121.34" fill="#F4911E"/>
<path d="M207.64 116.4V98.87L203.18 103.34V113.25L189.36 118.21V189.41L193.84 186.27V121.35M207.64 191.21L203.18 194.33V204.25H162.01L157.54 208.71H207.64M128.65 165.03H171.37L175.82 160.57H124.19V189.39L128.66 186.24V178.41M142.45 195.55V191.22L138 194.34V204.26H96.81L92.37 208.72H142.44M110.66 118.2L96.82 113.24L92.39 116.39L106.21 121.34M162.01 113.24L157.55 116.39L171.37 121.34L175.83 118.19M142.45 116.4V98.87L138 103.34V113.25L124.17 118.21V147.04L128.64 142.57V121.34" fill="#E7E9EA"/>
<path d="M92.38 191.21V208.71L96.81 204.25H137.99V194.33L142.45 191.21L128.65 186.25L124.18 189.39V160.57H175.82L171.36 165.03V186.26L157.54 191.22V208.72L162 204.26H203.18V194.34L207.64 191.22L193.83 186.26L189.35 189.4V118.2L203.19 113.24V103.33L207.65 98.86H157.55V116.39L162.01 113.24L175.82 118.19L171.36 121.32V142.55H128.64L124.17 147.02V118.19L137.98 113.23V103.32L142.44 98.85H92.37V116.38L96.8 113.23L110.64 118.18L106.19 121.31V186.24" fill="white"/>
</svg>
